X: 61
T:Gan Ainm
M:4/4
L:1/8
R:Hornpipe
D:Session tape - Corofin, Clare
Z:Bernie Stocks
K:D
dA(3FGA DA(3FGA | fdcd A2ef | g2ge f2fd |1 (3efecB A2fe :|2 e2dc d2AG ::\
FAdA FAdA | GBdB GBdB |1 Acec Acec | dfaf (3gfe cB :|2 Acef gecd | e2d2 d4 :|
<end>
<start>
